X:34
T:Derri\'ere Les Carreaux
R:Schottische
O:France
M:C
C:Fr\'ed\'eric Paris
K:Dm
A2A2 A3G|FGAB G4|E2G2 FAFD\
|1 EGFE FEFG:|2 EGFE D4:|\
|:A2A2 d^cde|c2BA G4|A2A2 DEFGA\
|1 G2FE FEFG:|2 G2FE D4:|
